X:1
T:Minuet in Am from the Notebook for Anna Magdalena Bach (1725)
T:Minuet in Am from the Notebook for Anna Magdalena Bach (1725)
T:BWV Anh 120
T:Anonymous
%%score 1 2
L:1/8
M:3/4
K:C
V:1 treble nm="Violin" snm="Vln."
V:2 bass nm="Violoncello" snm="Vlc."
V:1
|: E2 | A>B c2 B2 | c2 A2 (e2 | e2) ed cB | c2 A2 (f2 | f2) e2 ^d2 | e2 B2 (e2 | e2) d2 ^c2 | %8
 d2 A2 (d2 | d2) c2 B2 | c2 G2 c2 | Bc dB fA | ^G4 :: G2 | c>d e2 d2 | e2 c2 (g2 | g2) gf ed | %17
 e2 c2 (a2 | a2) g2 ^f2 | g2 d2 e2 | f2 Td4 | c4 e2 | f2 T^f3 e/f/ | g2 d2 ^f2 | g2 T^g3 ^f/g/ | %25
 a2 e2 a2 | f2 e2 d2 | e2 E2 A2 | d2 TB4 | A4 :| %30
V:2
|: z2 | z2 z2 E,2 | A,>B, C2 B,2 | C2 A,2 (E2 | E2) ED CB, | A,2 A,2 A,2 | ^G,2 G,2 G,2 | %7
 G,2 G,2 G,2 | ^F,2 F,2 F,2 | F,2 F,2 F,2 | E,2 E,2 E,2 | D,2 D,2 D,2 | E,2 E,,2 :: z2 | %14
 z2 z2 G,2 | C>D E2 D2 | E2 C2 (G2 | G2) GF ED | C2 C2 C2 | B,2 G,2 C2 | A,2 F,2 G,2 | %21
 C,2 C,,2 z2 | z2 z2 A,,2 | _B,,2 T=B,,3/2A,,/4B,,/4 C,2 | B,,2 E,,2 B,,2 | %25
 C,2 T^C,3/2B,,/4C,/4 A,,2 | D,2 E,2 F,2 | C,4 F,2 | D,2 E,2 E,,2 | A,,4 :| %30

